X:56
T:Rhyfelgyrch Capten Morgan
M:4/4
L:1/8
Q:80
C:Trad. arr. J.T.
R:Slow air
N:E minor arrangement
K:G
D2 E>E E2 D2 | E>F G>F E2 FG | A2 A>B G2 E2|
D8 :||: B2 B2 G2 E2 | A>B A>G F4 |
EG FE D2 EF | G2 F2 E4 :||
